assets/metlife/original.svg

<svg height="21.17" viewBox="0 0 88.46 21.17" width="88.46" xmlns="http://www.w3.org/2000/svg"><g transform="translate(-162.486 -437.92)"><text font-size="15" x="247.396" y="445.438"><tspan fill="#2d7bc8" font-family="Futura" font-size="3.681625" font-weight="400" x="247.396" y="445.438">®</tspan></text><g fill="#2d7bc8"><path d="m0 0c-.162.882-.972 1.459-1.855 1.459-.953 0-1.747-.504-1.945-1.459zm3.043-1.891h-6.896c0-1.332.702-2.053 2.053-2.053.702 0 1.205.235 1.567.847h3.15c-.521-2.178-2.593-3.169-4.7-3.169-3.06 0-5.348 1.729-5.348 4.915 0 3.08 2.108 4.935 5.114 4.935 3.206 0 5.06-1.981 5.06-5.133" transform="matrix(1.25 0 0 -1.25 193.837 450.272)"/><path d="m0 0h-3.278v6.536h-1.638v2.701h1.638v2.774h3.278v-2.774h1.615v-2.701h-1.615" transform="matrix(1.25 0 0 -1.25 204.853 457.903)"/><path d="m219.53 457.903h4.096v-12.337h-4.096z"/><path d="m0 0h-3.279v6.217h-1.632v2.702h1.632v.482c0 1.278.037 2.215.936 3.241a4.2 4.2 0 0 0 3.224 1.476c.505 0 .954-.089 1.405-.324v-2.827c-.378.162-.72.306-1.153.306-.845 0-1.133-.504-1.133-1.549v-.805h1.957v-2.702h-1.957" transform="matrix(1.25 0 0 -1.25 231.846 457.853)"/><path d="m0 0c-.16.883-.97 1.458-1.852 1.458-.956 0-1.748-.504-1.945-1.458zm3.046-1.891h-6.898c0-1.332.702-2.052 2.053-2.052.702 0 1.206.234 1.567.846h3.151c-.522-2.179-2.594-3.17-4.7-3.17-3.061 0-5.349 1.729-5.349 4.917 0 3.079 2.108 4.933 5.115 4.933 3.206 0 5.061-1.98 5.061-5.132" transform="matrix(1.25 0 0 -1.25 244.105 450.28)"/><path d="m0 0a2.024 2.024 0 1 1 0-4.048 2.024 2.024 0 0 1 0 4.048" transform="matrix(1.25 0 0 -1.25 221.57 438.945)"/><path d="m0 0h3.315l2.626-6.921 2.783 6.921h3.349l1.958-12.949h-3.366l-.945 7.453h-.035l-3.108-7.453h-1.339l-2.971 7.453h-.035l-1.082-7.453h-3.349" transform="matrix(1.25 0 0 -1.25 166.405 441.73)"/><path d="m0 0h4.102v-2.896h-7.522v13.157h3.42" transform="matrix(1.25 0 0 -1.25 212.878 454.27)"/></g></g></svg>

<svg xmlns="http://www.w3.org/2000/svg" id="svg3009" width="88.46" height="21.17" viewBox="0 0 88.46 21.17"><g id="layer1" transform="translate(-162.486 -437.92)"><text id="text62" x="247.396" y="445.438" font-size="15px"><tspan id="tspan64" x="247.396" y="445.438" style="-inkscape-font-specification:Futura" font-size="3.68162513px" font-variant="normal" font-weight="400" writing-mode="lr-tb" fill="#2d7bc8" fill-opacity="1" fill-rule="nonzero" stroke="none" font-family="Futura">®</tspan></text><g id="g66" transform="matrix(1.25 0 0 -1.25 193.837 450.272)"><path id="path68" d="M0 0c-.162.882-.972 1.459-1.855 1.459C-2.808 1.459-3.602.955-3.8 0zm3.043-1.891h-6.896c0-1.332.702-2.053 2.053-2.053.702 0 1.205.235 1.567.847h3.15c-.521-2.178-2.593-3.169-4.7-3.169-3.06 0-5.348 1.729-5.348 4.915 0 3.08 2.108 4.935 5.114 4.935 3.206 0 5.06-1.981 5.06-5.133" fill="#2d7bc8" fill-opacity="1" fill-rule="nonzero" stroke="none"/></g><g id="g70" transform="matrix(1.25 0 0 -1.25 204.853 457.903)"><path id="path72" d="M0 0h-3.278v6.536h-1.638v2.701h1.638v2.774H0V9.237h1.615V6.536H0" fill="#2d7bc8" fill-opacity="1" fill-rule="nonzero" stroke="none"/></g><path id="path74" d="M219.53 457.903h4.096v-12.337h-4.096z" fill="#2d7bc8" fill-opacity="1" fill-rule="nonzero" stroke="none"/><g id="g76" transform="matrix(1.25 0 0 -1.25 231.846 457.853)"><path id="path78" d="M0 0h-3.279v6.217h-1.632v2.702h1.632v.482c0 1.278.037 2.215.936 3.241a4.2 4.2 0 0 0 3.224 1.476c.505 0 .954-.089 1.405-.324v-2.827c-.378.162-.72.306-1.153.306C.288 11.273 0 10.769 0 9.724v-.805h1.957V6.217H0" fill="#2d7bc8" fill-opacity="1" fill-rule="nonzero" stroke="none"/></g><g id="g80" transform="matrix(1.25 0 0 -1.25 244.105 450.28)"><path id="path82" d="M0 0c-.16.883-.97 1.458-1.852 1.458C-2.808 1.458-3.6.954-3.797 0zm3.046-1.891h-6.898c0-1.332.702-2.052 2.053-2.052.702 0 1.206.234 1.567.846h3.151c-.522-2.179-2.594-3.17-4.7-3.17-3.061 0-5.349 1.729-5.349 4.917 0 3.079 2.108 4.933 5.115 4.933 3.206 0 5.061-1.98 5.061-5.132" fill="#2d7bc8" fill-opacity="1" fill-rule="nonzero" stroke="none"/></g><g id="g84" transform="matrix(1.25 0 0 -1.25 221.57 438.945)"><path id="path86" d="M0 0a2.024 2.024 0 1 1 0-4.048A2.024 2.024 0 0 1 0 0" fill="#2d7bc8" fill-opacity="1" fill-rule="nonzero" stroke="none"/></g><g id="g88" transform="matrix(1.25 0 0 -1.25 166.405 441.73)"><path id="path90" d="M0 0h3.315l2.626-6.921L8.724 0h3.349l1.958-12.949h-3.366L9.72-5.496h-.035l-3.108-7.453H5.238L2.267-5.496h-.035L1.15-12.949h-3.349" fill="#2d7bc8" fill-opacity="1" fill-rule="nonzero" stroke="none"/></g><g id="g92" transform="matrix(1.25 0 0 -1.25 212.878 454.27)"><path id="path94" d="M0 0h4.102v-2.896H-3.42v13.157H0" fill="#2d7bc8" fill-opacity="1" fill-rule="nonzero" stroke="none"/></g></g></svg>
